X:824
T:Iron Man, The 
C:Joe Buchanan's Scottish Tome - Page 399.1
I:399 1
C:J. Scott Skinner
S:(print only - do not play - see second page)
Z:Carl Allison
R:Strathspey
L:1/8
M:4/4
K:A
E |"A"A2 (c>A) "E7"B>GA>B | "A"c2 (e>c) "E7"d>B"A"c>e |
"D"f2 (d>f) "A/C#"e2  (c>e) |"Dm"(3dcB "A"(3cBA "E7"(G<B) B>c |
"A"A2 (c>A) "E7"B>GA>B | "A"c2 (e>c) "E7"d>B"A"c>e |
"D"f2 (d>f) "A/C#"(e<a) (c>A) | "Dm"(3Bcd "E7"(3dcB "A"(c<A) A |]
g | "A"(a>A)(g>A) (f>A)(e>A) | "A"(c/B/A) (e>g) a>ec>A |
"E7"(d>E)(c>E) (B>E)(c>E) | "Bm"d/c/B c/B/A "E7"((3Bcd) ((3efg) |
"A"(a>A)(g>A) (f>A)(e>A) | "A"(c/B/A) (e>g) a>ec>A |
"D"d>e(f>d) "A"(3eag (3fed | "A"(3cBA "E7"(3GAB "A"c>A A |]

